X:20
T:Up And War Them A', Willie
C: Niel Gow collection
R: Medley (reel)
M:C|
L:1/8
Z: Jason R. Fruit <jasonfruit@gmail.com>
K:A
e | A/A/A cA d2-df | A/A/A cA !trill!B2-B>c | A/A/A cA defa | edcB A3e |
A/A/A cA d2 (.d.f) | A/A/A cA !trill!B2 B>c | A/A/A cA defa | edcB A3 || g |
afec d2 df | (a/g/f/e/) a>c !trill!B2 Bg | afec defa | edcB A3 g|
(a/g/f/e/) ac d2 df | (a/g/f/e/) ac !trill!B3 g | aefc defa | edcB A3 |]

